packages/foundations/assets/icons/functional/images/communication/speech_bubble_exclamation_mark_14.svg

<svg width="14" height="14" viewBox="0 0 14 14" fill="none" xmlns="http://www.w3.org/2000/svg">
<g clip-path="url(#clip0_185_496)">
<path fill-rule="evenodd" clip-rule="evenodd" d="M10.7882 1.40002C11.8451 1.40002 12.6 2.19254 12.6 3.14904V8.75133C12.6 9.70783 11.8177 10.5003 10.8432 10.5003H4.79026C4.58435 10.5003 4.40593 10.555 4.28239 10.6916L2.59419 12.3996C2.15498 12.8369 1.40002 12.509 1.40002 11.8941V3.14904C1.40002 2.19254 2.19616 1.40002 3.17065 1.40002H10.7882ZM11.2 2.80002H2.80002V10.22L3.30866 9.74087C3.67989 9.38493 4.16108 9.12743 4.66971 9.10002H11.2V2.80002ZM6.24752 7.76525C6.24752 8.20251 6.60438 8.53041 7.01618 8.53041C7.42792 8.53041 7.78477 8.20251 7.78477 7.76525C7.78477 7.35528 7.42792 7.00002 7.01618 7.00002C6.60438 7.00002 6.24752 7.35528 6.24752 7.76525ZM6.30002 6.30117V3.50002H7.70002V6.30117H6.30002Z" fill="#1A1C1F"/>
</g>
<defs>
<clipPath id="clip0_185_496">
<rect width="14" height="14" fill="white"/>
</clipPath>
</defs>
</svg>

<svg xmlns="http://www.w3.org/2000/svg" width="14" height="14" fill="none"><g clip-path="url(#a)"><path fill="#1A1C1F" fill-rule="evenodd" d="M10.788 1.4c1.057 0 1.812.793 1.812 1.749v5.602c0 .957-.782 1.75-1.757 1.75H4.79c-.206 0-.384.054-.508.19L2.594 12.4c-.439.437-1.194.109-1.194-.506V3.15c0-.956.796-1.749 1.77-1.749zm.412 1.4H2.8v7.42l.509-.48c.37-.355.852-.613 1.36-.64H11.2zM6.248 7.765c0 .438.356.765.768.765a.766.766 0 0 0 .769-.765A.784.784 0 0 0 7.016 7a.784.784 0 0 0-.768.765M6.3 6.301V3.5h1.4v2.801z" clip-rule="evenodd"/></g><defs><clipPath id="a"><path fill="#fff" d="M0 0h14v14H0z"/></clipPath></defs></svg>
